svgs/light/e.svg

<svg xmlns="http://www.w3.org/2000/svg" viewBox="0 0 320 512"><!-- Font Awesome Pro 6.0.0-alpha2 by @fontawesome - https://fontawesome.com License - https://fontawesome.com/license (Commercial License) --><path d="M320 464C320 472.844 312.844 480 304 480H16C7.156 480 0 472.844 0 464V48C0 39.156 7.156 32 16 32H304C312.844 32 320 39.156 320 48S312.844 64 304 64H32V240H240C248.844 240 256 247.156 256 256S248.844 272 240 272H32V448H304C312.844 448 320 455.156 320 464Z"/></svg>

<svg xmlns="http://www.w3.org/2000/svg" viewBox="0 0 320 512"><!--! Font Awesome Pro 6.3.0 by @fontawesome - https://fontawesome.com License - https://fontawesome.com/license (Commercial License) Copyright 2023 Fonticons, Inc. --><path d="M320 464c0 8.844-7.156 16-16 16h-288C7.156 480 0 472.8 0 464v-416C0 39.16 7.156 32 16 32h288C312.8 32 320 39.16 320 48S312.8 64 304 64H32v176h208c8.844 0 16 7.162 16 16.01C256 264.8 248.8 272 240 272H32V448h272C312.8 448 320 455.2 320 464z"/></svg>
